svg/24/facecam-off.svg

<svg width="24" height="24" viewBox="0 0 24 24" fill="currentColor" xmlns="http://www.w3.org/2000/svg"><path fill-rule="evenodd" clip-rule="evenodd" d="M2.21967 21.7803C1.92678 21.4874 1.92678 21.0126 2.21967 20.7197L20.7197 2.21967C21.0126 1.92678 21.4874 1.92678 21.7803 2.21967C22.0732 2.51256 22.0732 2.98744 21.7803 3.28033L20.0605 5.00012C20.66 5.00666 21.2248 5.28327 21.5153 5.80859C22.1078 6.88018 23 8.99157 23 11.9912V12.0088C23 15.0084 22.1078 17.1198 21.5153 18.1914C21.2212 18.7231 20.6463 19 20.0388 19L6.06066 19L3.28033 21.7803C2.98744 22.0732 2.51256 22.0732 2.21967 21.7803ZM7.56066 17.5L20.0388 17.5C20.1182 17.5 20.1699 17.4815 20.193 17.4693C20.1987 17.4662 20.2024 17.4638 20.2043 17.4623C20.7021 16.5614 21.5 14.6994 21.5 12.0088V11.9912C21.5 9.30061 20.7021 7.43863 20.2043 6.53765C20.2024 6.53618 20.1987 6.53377 20.193 6.53074C20.1699 6.51852 20.1182 6.5 20.0387 6.5H18.5607L15.3089 9.75178C15.7451 10.3925 16 11.1665 16 12C16 14.2091 14.2091 16 12 16C11.1665 16 10.3925 15.745 9.75179 15.3089L7.56066 17.5ZM10.8436 14.2171C11.1894 14.3978 11.5828 14.5 12 14.5C13.3807 14.5 14.5 13.3807 14.5 12C14.5 11.5828 14.3978 11.1894 14.2171 10.8436L10.8436 14.2171Z"/><path d="M2.53914 18.2818L3.64501 17.1759C3.20427 16.2987 2.63607 14.8005 2.5209 12.75L5.25 12.75C5.66421 12.75 6 12.4142 6 12C6 11.5858 5.66421 11.25 5.25 11.25L2.5209 11.25C2.64978 8.95544 3.34592 7.35253 3.79597 6.5374C3.7979 6.53598 3.80137 6.53373 3.80708 6.53071C3.83012 6.51852 3.88183 6.5 3.96125 6.5H14.3209L15.8209 5H3.96125C3.35368 5 2.77877 5.27692 2.48487 5.80867C1.89229 6.88083 1 8.99427 1 12C1 15.0057 1.89229 17.1192 2.48487 18.1913C2.50202 18.2224 2.52013 18.2525 2.53914 18.2818Z"/><path d="M8.07032 12.7506L9.63582 11.1851C9.88573 10.4599 10.4599 9.88573 11.1851 9.63582L12.7506 8.07031C12.5075 8.02415 12.2566 8 12 8C9.79086 8 8 9.79086 8 12C8 12.2566 8.02416 12.5075 8.07032 12.7506Z"/></svg>

<svg xmlns="http://www.w3.org/2000/svg" width="24" height="24" fill="currentColor" viewBox="0 0 24 24">
  <path fill-rule="evenodd" d="M2.22 21.78a.75.75 0 0 1 0-1.06l18.5-18.5a.75.75 0 1 1 1.06 1.06L20.06 5c.6.007 1.165.283 1.455.809C22.108 6.88 23 8.992 23 11.99v.018c0 3-.892 5.11-1.485 6.182-.294.532-.869.809-1.476.809H6.06l-2.78 2.78a.75.75 0 0 1-1.061 0Zm5.34-4.28h12.48a.341.341 0 0 0 .165-.038c.498-.9 1.296-2.763 1.296-5.453v-.018c0-2.69-.798-4.552-1.296-5.453a.34.34 0 0 0-.166-.038h-1.477L15.31 9.752a4 4 0 0 1-5.557 5.557L7.56 17.5Zm3.284-3.283a2.5 2.5 0 0 0 3.373-3.373l-3.373 3.373Z" clip-rule="evenodd"/>
  <path d="m2.54 18.282 1.105-1.106c-.44-.877-1.009-2.375-1.124-4.426H5.25a.75.75 0 0 0 0-1.5H2.52c.13-2.295.826-3.897 1.276-4.713a.34.34 0 0 1 .165-.037h10.36l1.5-1.5H3.96c-.607 0-1.182.277-1.476.809C1.892 6.88 1 8.994 1 12s.892 5.12 1.485 6.191c.017.031.035.062.054.09Z"/>
  <path d="m8.07 12.75 1.566-1.565c.25-.725.824-1.3 1.55-1.55L12.75 8.07a4 4 0 0 0-4.68 4.68Z"/>
</svg>
